data/sheikah/4.svg

<!-- Generated by IcoMoon.io -->
<svg version="1.1" xmlns="http://www.w3.org/2000/svg" width="1024" height="1024" viewBox="0 0 1024 1024">
<title></title>
<g id="icomoon-ignore">
</g>
<path d="M153.5 751l119.5 119.5h179.5l119.5-119.5v-478l-119.5-119.5h-179.5l-119.5 119.5h299v478h-299zM751 153.5l119.5 119.5v478l-119.5 119.5v-717zM153.5 571.5v-119.5h119.5v119.5h-119.5z"></path>
</svg>

<svg xmlns="http://www.w3.org/2000/svg" width="1024" height="1024" viewBox="0 0 1024 1024">
  <title/>
  <path d="M153.5 751 273 870.5h179.5L572 751V273L452.5 153.5H273L153.5 273h299v478zM751 153.5 870.5 273v478L751 870.5zm-597.5 418V452H273v119.5z"/>
</svg>
